X:1
T:Styggen p\aa l\aaven
C:anon.
O:Norway
R:Reinlender
Z:Frank Nordberg <frnordbe@online.no> abcusers 2000-10-04
M:C
L:1/8
Q:1/4=154
K:F
"F"C2 F>A c2 c2|"C7"B>A G>A B2 B2|"C7"C2 E>G B2 B2|"F"A>G F>G A2 A2|
"F"C2 F>A c2 c2|"C7"B>A G>A B2 B2|"C7"c2 e>d c>B A>G|"F"F2 F2 F2 z2:|
|:"F"C2 A2 CA CA|"C7"A2 G2 G>^F G2|"C7"G2 G>A B>B A>G|"F"G>F A>c f4|
"F"C2 A2 CA CA|"C7"A2 G2 G>^F G2|"C7"c2 e>d c>B A>G|"F"F2 F2 F2 z2:|
